X:1
T:Call to Missions–Macedonia, CMD
T:Call to Missions–Macedonia, CMD
T:Scott Werdebaugh,1983
T:© 1983 Scott Werdebaugh &amp; New Heart Music May freely copy &amp; use with no alterations. All other rights reserved.
C:Scott Werdebaugh,1983
Z:© 1983 Scott Werdebaugh & New Heart Music
Z:May freely copy & use with no alterations. All other rights reserved.
%%score ( 1 2 ) 3
L:1/8
Q:1/4=120
M:4/4
K:C
V:1 treble 
V:2 treble 
V:3 bass 
V:1
"^With passion and heart-felt commitment" [G,C]2 | [CE]2 [CE]2 [CF]2 [CE]2 | %2
 [B,E]3 [B,D] [G,C]2 [CE]2 | [DG]3 [EG] [FG]2 [DF]2 | [CE]6 [EG]2 | [CA]3 [CA] [DB]2 [CA]2 | %6
 [FA]3 [EG] [EG]2 [EG]2 | [D^F]3 [A,D] [CE]2 [DF]2 | [DG]6 [DG]2 | [Ec]2 [Ec]2 [DB]2 [FA]2 | %10
 [DG]3 [DF] [CE]2 [EG]2 | [FA]3 [EG] [DF]2 [CE]2 | [B,D]6 [B,D]2 | [B,D]2 [B,D]2 [CE]2 [CF]2 | %14
 [CF]3 [CE] [CE]2 C2 | [CE]3 [CE] [B,E]3 [B,D] | [G,C]6 |] %17
V:2
 x2 | x8 | x8 | x8 | x8 | x8 | x8 | x8 | x8 | x8 | x8 | x8 | x8 | x8 | x6 C2 | x8 | x6 |] %17
V:3
 [C,E,]2 | [C,G,]2 [C,G,]2 [F,A,]2 [C,G,]2 | [G,,G,]3 [G,,F,] [C,E,]2 [C,G,]2 | %3
 [G,,B,]3 [C,G,] [D,G,]2 [G,B,]2 | [C,G,]6 [C,C]2 | [F,,A,]3 [F,,A,] [G,,G,]2 [F,A,]2 | %6
 [F,,C]3 [C,C] [C,C]2 [C,C]2 | [D,A,]3 [D,^F,] [C,G,]2 [D,A,]2 | [G,,B,]6 [G,,F,]2 | %9
 [C,G,]2 [C,G,]2 [G,,G,]2 [F,C]2 | [G,B,]3 [G,B,] [C,G,]2 [C,C]2 | [F,C]3 [C,C] [G,B,]2 [C,G,]2 | %12
 [G,,G,]6 [G,,G,]2 | [G,,F,]2 [G,,F,]2 [C,G,]2 [D,F,]2 | [F,A,]3 [C,G,] [C,G,]2 [F,,A,]2 | %15
 [C,G,]3 [C,G,] [G,,G,]3 [G,,F,] | [C,E,]6 |] %17

